_site/images/resources-page/icon-information-escrow.svg

<svg fill="none" height="67" viewBox="0 0 67 67" width="67" xmlns="http://www.w3.org/2000/svg"><g fill="#00a0b6"><path d="m14.5385 6.69989c.6168 0 1.1167-.49995 1.1167-1.11667s-.4999-1.11667-1.1167-1.11667c-.6167 0-1.1166.49995-1.1166 1.11667s.4999 1.11667 1.1166 1.11667z"/><path d="m10.0737 6.69989c.6167 0 1.1167-.49995 1.1167-1.11667s-.5-1.11667-1.1167-1.11667c-.61672 0-1.11667.49995-1.11667 1.11667s.49995 1.11667 1.11667 1.11667z"/><path d="m5.60495 6.69989c.61672 0 1.11667-.49995 1.11667-1.11667s-.49995-1.11667-1.11667-1.11667-1.11667.49995-1.11667 1.11667.49995 1.11667 1.11667 1.11667z"/><path d="m61.4167 0h-55.83337c-3.08206.00369183-5.57963817 2.50127-5.58333 5.58333v55.83337c.00369183 3.082 2.50127 5.5796 5.58333 5.5833h55.83337c3.082-.0037 5.5796-2.5013 5.5833-5.5833v-55.83337c-.0037-3.08206-2.5013-5.57963817-5.5833-5.58333zm-55.83337 2.23333h55.83337c1.8501 0 3.35 1.49985 3.35 3.35v3.35h-62.53337v-3.35c0-1.85015 1.49985-3.35 3.35-3.35zm55.83337 62.53337h-55.83337c-1.85015 0-3.35-1.4999-3.35-3.35v-50.25h62.53337v50.25c0 1.8501-1.4999 3.35-3.35 3.35z"/><path d="m59.1831 6.69985c0 .61672.4999 1.11667 1.1166 1.11667.6168 0 1.1167-.49995 1.1167-1.11667.6167 0 1.1167-.49995 1.1167-1.11666 0-.61672-.5-1.11667-1.1167-1.11667 0-.61672-.4999-1.11667-1.1167-1.11667-.6167 0-1.1166.49995-1.1166 1.11667-.6167 0-1.1167.49995-1.1167 1.11667 0 .61671.5 1.11666 1.1167 1.11666z"/><path d="m52.4839 6.69989h2.2333c.6167 0 1.1167-.49995 1.1167-1.11667s-.5-1.11667-1.1167-1.11667h-2.2333c-.6168 0-1.1167.49995-1.1167 1.11667s.4999 1.11667 1.1167 1.11667z"/><path d="m7.81927 23.4499h31.26663c1.2335 0 2.2334-.9998 2.2334-2.2333v-4.4667c0-1.2334-.9999-2.2333-2.2334-2.2333h-31.26663c-1.23344 0-2.23333.9999-2.23333 2.2333v4.4667c0 1.2335.99989 2.2333 2.23333 2.2333zm0-6.7h31.26663v4.4667h-31.26663z"/><path d="m41.3198 26.8c0-.6167-.5-1.1167-1.1167-1.1167h-32.38331c-.61672 0-1.11667.5-1.11667 1.1167s.49995 1.1167 1.11667 1.1167h32.38331c.6167 0 1.1167-.5 1.1167-1.1167z"/><path d="m37.9698 31.2668c0-.6167-.4999-1.1167-1.1167-1.1167h-29.03331c-.61672 0-1.11667.5-1.11667 1.1167s.49995 1.1167 1.11667 1.1167h29.03331c.6168 0 1.1167-.5 1.1167-1.1167z"/><path d="m35.7364 35.7336c0-.6167-.4999-1.1167-1.1166-1.1167h-26.80001c-.61672 0-1.11667.5-1.11667 1.1167s.49995 1.1167 1.11667 1.1167h26.80001c.6167 0 1.1166-.5 1.1166-1.1167z"/><path d="m7.81979 39.083c-.61672 0-1.11667.5-1.11667 1.1167s.49995 1.1166 1.11667 1.1166h24.56671c.6167 0 1.1166-.4999 1.1166-1.1166s-.4999-1.1167-1.1166-1.1167z"/><path d="m59.1859 44.6668h-10.223c16.6829-31.5145 10.2052-19.2759 11.9371-22.5477 1.1518-2.181.3205-4.8827-1.8581-6.0389l-1.9776-1.0441c-2.1786-1.1491-4.8761-.3179-6.03 1.8581-17.7226 33.481-13.9673 26.3768-14.7065 27.7726h-28.50853c-1.23344 0-2.23333.9999-2.23333 2.2334v13.4c0 1.2334.99989 2.2333 2.23333 2.2333h51.36663c1.2335 0 2.2334-.9999 2.2334-2.2333v-13.4c0-1.2335-.9999-2.2334-2.2334-2.2334zm-10.3615-18.8326 1.9742 1.0452-10.491 19.8175c-.7288-.2561-1.4839-.4303-2.2512-.5192zm2.0904-3.9474 5.9183 3.1345-1.0452 1.9743-5.9183-3.1345zm-13.5865 26.4338c1.0284.0817 2.0331.3508 2.9648.7939.8892.5206 1.6756 1.1995 2.3204 2.0033l-6.1417 5.207zm6.6486.9916c-.5054-.5847-1.0743-1.1113-1.6962-1.5701l10.4967-19.8175 1.9742 1.0441c-1.484 2.7839-9.3007 17.5585-10.7747 20.3435zm12.0455-32.3019 1.9743 1.0452c1.088.577 1.5036 1.9258.929 3.015l-1.0451 1.9743-5.9184-3.1345 1.0441-1.9742c.5782-1.0874 1.9275-1.5016 3.0161-.9258zm3.1635 43.2899h-51.36663v-13.4h27.41643c-.4154 3.8748.6532-6.1183-.9827 9.189-.0969.9082.3689 1.7839 1.1763 2.2111.8073.4272 1.7934.3196 2.4897-.2714 5.5688-4.718 7.1846-6.1082 7.0629-5.9999.172-.153-.1116.3763 2.7984-5.1288h11.4056z"/><path d="m12.2797 55.8333h-2.2333c-.61676 0-1.11671.4999-1.11671 1.1166s.49995 1.1167 1.11671 1.1167h2.2333c.6167 0 1.1167-.5 1.1167-1.1167s-.5-1.1166-1.1167-1.1166z"/><path d="m18.9828 55.8333h-2.2333c-.6167 0-1.1167.4999-1.1167 1.1166s.5 1.1167 1.1167 1.1167h2.2333c.6167 0 1.1167-.5 1.1167-1.1167s-.5-1.1166-1.1167-1.1166z"/><path d="m25.6859 55.8333h-2.2333c-.6167 0-1.1167.4999-1.1167 1.1166s.5 1.1167 1.1167 1.1167h2.2333c.6168 0 1.1167-.5 1.1167-1.1167s-.4999-1.1166-1.1167-1.1166z"/><path d="m31.2646 55.8333h-1.1167c-.6167 0-1.1167.4999-1.1167 1.1166s.5 1.1167 1.1167 1.1167h1.1167c.6167 0 1.1166-.5 1.1166-1.1167s-.4999-1.1166-1.1166-1.1166z"/><path d="m43.5536 55.8333h-1.1166c-.6167 0-1.1167.4999-1.1167 1.1166s.5 1.1167 1.1167 1.1167h1.1166c.6168 0 1.1167-.5 1.1167-1.1167s-.4999-1.1166-1.1167-1.1166z"/><path d="m46.8984 56.9499c0 .6167.5 1.1167 1.1167 1.1167h2.2333c.6168 0 1.1167-.5 1.1167-1.1167s-.4999-1.1166-1.1167-1.1166h-2.2333c-.6167 0-1.1167.4999-1.1167 1.1166z"/><path d="m54.7182 58.0666h2.2334c.6167 0 1.1166-.5 1.1166-1.1167s-.4999-1.1166-1.1166-1.1166h-2.2334c-.6167 0-1.1166.4999-1.1166 1.1166s.4999 1.1167 1.1166 1.1167z"/></g></svg>

<svg width="67" height="67" viewBox="0 0 67 67" fill="none" xmlns="http://www.w3.org/2000/svg">
<path d="M14.5385 6.69989C15.1553 6.69989 15.6552 6.19994 15.6552 5.58322C15.6552 4.9665 15.1553 4.46655 14.5385 4.46655C13.9218 4.46655 13.4219 4.9665 13.4219 5.58322C13.4219 6.19994 13.9218 6.69989 14.5385 6.69989Z" fill="#00A0B6"/>
<path d="M10.0737 6.69989C10.6904 6.69989 11.1904 6.19994 11.1904 5.58322C11.1904 4.9665 10.6904 4.46655 10.0737 4.46655C9.45698 4.46655 8.95703 4.9665 8.95703 5.58322C8.95703 6.19994 9.45698 6.69989 10.0737 6.69989Z" fill="#00A0B6"/>
<path d="M5.60495 6.69989C6.22167 6.69989 6.72162 6.19994 6.72162 5.58322C6.72162 4.9665 6.22167 4.46655 5.60495 4.46655C4.98823 4.46655 4.48828 4.9665 4.48828 5.58322C4.48828 6.19994 4.98823 6.69989 5.60495 6.69989Z" fill="#00A0B6"/>
<path d="M61.4167 0H5.58333C2.50127 0.00369183 0.00369183 2.50127 0 5.58333V61.4167C0.00369183 64.4987 2.50127 66.9963 5.58333 67H61.4167C64.4987 66.9963 66.9963 64.4987 67 61.4167V5.58333C66.9963 2.50127 64.4987 0.00369183 61.4167 0ZM5.58333 2.23333H61.4167C63.2668 2.23333 64.7667 3.73318 64.7667 5.58333V8.93333H2.23333V5.58333C2.23333 3.73318 3.73318 2.23333 5.58333 2.23333ZM61.4167 64.7667H5.58333C3.73318 64.7667 2.23333 63.2668 2.23333 61.4167V11.1667H64.7667V61.4167C64.7667 63.2668 63.2668 64.7667 61.4167 64.7667Z" fill="#00A0B6"/>
<path d="M59.1831 6.69985C59.1831 7.31657 59.683 7.81652 60.2997 7.81652C60.9165 7.81652 61.4164 7.31657 61.4164 6.69985C62.0331 6.69985 62.5331 6.1999 62.5331 5.58319C62.5331 4.96647 62.0331 4.46652 61.4164 4.46652C61.4164 3.8498 60.9165 3.34985 60.2997 3.34985C59.683 3.34985 59.1831 3.8498 59.1831 4.46652C58.5664 4.46652 58.0664 4.96647 58.0664 5.58319C58.0664 6.1999 58.5664 6.69985 59.1831 6.69985Z" fill="#00A0B6"/>
<path d="M52.4839 6.69989H54.7172C55.3339 6.69989 55.8339 6.19994 55.8339 5.58322C55.8339 4.9665 55.3339 4.46655 54.7172 4.46655H52.4839C51.8671 4.46655 51.3672 4.9665 51.3672 5.58322C51.3672 6.19994 51.8671 6.69989 52.4839 6.69989Z" fill="#00A0B6"/>
<path d="M7.81927 23.4499H39.0859C40.3194 23.4499 41.3193 22.4501 41.3193 21.2166V16.7499C41.3193 15.5165 40.3194 14.5166 39.0859 14.5166H7.81927C6.58583 14.5166 5.58594 15.5165 5.58594 16.7499V21.2166C5.58594 22.4501 6.58583 23.4499 7.81927 23.4499ZM7.81927 16.7499H39.0859V21.2166H7.81927V16.7499Z" fill="#00A0B6"/>
<path d="M41.3198 26.8C41.3198 26.1833 40.8198 25.6833 40.2031 25.6833H7.81979C7.20307 25.6833 6.70312 26.1833 6.70312 26.8C6.70312 27.4167 7.20307 27.9167 7.81979 27.9167H40.2031C40.8198 27.9167 41.3198 27.4167 41.3198 26.8Z" fill="#00A0B6"/>
<path d="M37.9698 31.2668C37.9698 30.6501 37.4699 30.1501 36.8531 30.1501H7.81979C7.20307 30.1501 6.70312 30.6501 6.70312 31.2668C6.70312 31.8835 7.20307 32.3835 7.81979 32.3835H36.8531C37.4699 32.3835 37.9698 31.8835 37.9698 31.2668Z" fill="#00A0B6"/>
<path d="M35.7364 35.7336C35.7364 35.1169 35.2365 34.6169 34.6198 34.6169H7.81979C7.20307 34.6169 6.70312 35.1169 6.70312 35.7336C6.70312 36.3503 7.20307 36.8503 7.81979 36.8503H34.6198C35.2365 36.8503 35.7364 36.3503 35.7364 35.7336Z" fill="#00A0B6"/>
<path d="M7.81979 39.083C7.20307 39.083 6.70312 39.583 6.70312 40.1997C6.70312 40.8164 7.20307 41.3163 7.81979 41.3163H32.3865C33.0032 41.3163 33.5031 40.8164 33.5031 40.1997C33.5031 39.583 33.0032 39.083 32.3865 39.083H7.81979Z" fill="#00A0B6"/>
<path d="M59.1859 44.6668H48.9629C65.6458 13.1523 59.1681 25.3909 60.9 22.1191C62.0518 19.9381 61.2205 17.2364 59.0419 16.0802L57.0643 15.0361C54.8857 13.887 52.1882 14.7182 51.0343 16.8942C33.3117 50.3752 37.067 43.271 36.3278 44.6668H7.81927C6.58583 44.6668 5.58594 45.6667 5.58594 46.9002V60.3002C5.58594 61.5336 6.58583 62.5335 7.81927 62.5335H59.1859C60.4194 62.5335 61.4193 61.5336 61.4193 60.3002V46.9002C61.4193 45.6667 60.4194 44.6668 59.1859 44.6668ZM48.8244 25.8342L50.7986 26.8794L40.3076 46.6969C39.5788 46.4408 38.8237 46.2666 38.0564 46.1777L48.8244 25.8342ZM50.9148 21.8868L56.8331 25.0213L55.7879 26.9956L49.8696 23.8611L50.9148 21.8868ZM37.3283 48.3206C38.3567 48.4023 39.3614 48.6714 40.2931 49.1145C41.1823 49.6351 41.9687 50.314 42.6135 51.1178L36.4718 56.3248L37.3283 48.3206ZM43.9769 49.3122C43.4715 48.7275 42.9026 48.2009 42.2807 47.7421L52.7774 27.9246L54.7516 28.9687C53.2676 31.7526 45.4509 46.5272 43.9769 49.3122ZM56.0224 17.0103L57.9967 18.0555C59.0847 18.6325 59.5003 19.9813 58.9257 21.0705L57.8806 23.0448L51.9622 19.9103L53.0063 17.9361C53.5845 16.8487 54.9338 16.4345 56.0224 17.0103ZM59.1859 60.3002H7.81927V46.9002H35.2357C34.8203 50.775 35.8889 40.7819 34.253 56.0892C34.1561 56.9974 34.6219 57.8731 35.4293 58.3003C36.2366 58.7275 37.2227 58.6199 37.919 58.0289C43.4878 53.3109 45.1036 51.9207 44.9819 52.029C45.1539 51.876 44.8703 52.4053 47.7803 46.9002H59.1859V60.3002Z" fill="#00A0B6"/>
<path d="M12.2797 55.8333H10.0464C9.42964 55.8333 8.92969 56.3332 8.92969 56.9499C8.92969 57.5666 9.42964 58.0666 10.0464 58.0666H12.2797C12.8964 58.0666 13.3964 57.5666 13.3964 56.9499C13.3964 56.3332 12.8964 55.8333 12.2797 55.8333Z" fill="#00A0B6"/>
<path d="M18.9828 55.8333H16.7495C16.1328 55.8333 15.6328 56.3332 15.6328 56.9499C15.6328 57.5666 16.1328 58.0666 16.7495 58.0666H18.9828C19.5995 58.0666 20.0995 57.5666 20.0995 56.9499C20.0995 56.3332 19.5995 55.8333 18.9828 55.8333Z" fill="#00A0B6"/>
<path d="M25.6859 55.8333H23.4526C22.8359 55.8333 22.3359 56.3332 22.3359 56.9499C22.3359 57.5666 22.8359 58.0666 23.4526 58.0666H25.6859C26.3027 58.0666 26.8026 57.5666 26.8026 56.9499C26.8026 56.3332 26.3027 55.8333 25.6859 55.8333Z" fill="#00A0B6"/>
<path d="M31.2646 55.8333H30.1479C29.5312 55.8333 29.0312 56.3332 29.0312 56.9499C29.0312 57.5666 29.5312 58.0666 30.1479 58.0666H31.2646C31.8813 58.0666 32.3812 57.5666 32.3812 56.9499C32.3812 56.3332 31.8813 55.8333 31.2646 55.8333Z" fill="#00A0B6"/>
<path d="M43.5536 55.8333H42.437C41.8203 55.8333 41.3203 56.3332 41.3203 56.9499C41.3203 57.5666 41.8203 58.0666 42.437 58.0666H43.5536C44.1704 58.0666 44.6703 57.5666 44.6703 56.9499C44.6703 56.3332 44.1704 55.8333 43.5536 55.8333Z" fill="#00A0B6"/>
<path d="M46.8984 56.9499C46.8984 57.5666 47.3984 58.0666 48.0151 58.0666H50.2484C50.8652 58.0666 51.3651 57.5666 51.3651 56.9499C51.3651 56.3332 50.8652 55.8333 50.2484 55.8333H48.0151C47.3984 55.8333 46.8984 56.3332 46.8984 56.9499Z" fill="#00A0B6"/>
<path d="M54.7182 58.0666H56.9516C57.5683 58.0666 58.0682 57.5666 58.0682 56.9499C58.0682 56.3332 57.5683 55.8333 56.9516 55.8333H54.7182C54.1015 55.8333 53.6016 56.3332 53.6016 56.9499C53.6016 57.5666 54.1015 58.0666 54.7182 58.0666Z" fill="#00A0B6"/>
</svg>
